website/img/icon-money.svg

<svg clip-rule="evenodd" fill-rule="evenodd" stroke-linejoin="round" stroke-miterlimit="2" viewBox="0 0 69 73" xmlns="http://www.w3.org/2000/svg"><g fill="#00bddf" fill-rule="nonzero" transform="translate(-446.44 -833.59)"><path d="m504.574 847.161c-4.122 2.354-7.062 3.788-9.403 3.414 2.521-1.083 6.934-3.404 9.251-8.835.175-.413-1.078-.993-1.49-1.168-.412-.176-.888.016-1.063.427-1.79 4.198-4.218 6.394-6.259 7.549 2.38-4.361 3.802-10.429 3.802-14.958h-18.135-18.891c0 5.838 2.357 14.248 6.094 18.242h24.838c.005-.006.01-.013.016-.019.999.297 2.243.532 3.714.532 2.388 0 5.354-.614 8.754-2.554.389-.222.1-1.938-.123-2.327-.222-.389-.717-.525-1.105-.303z"/><path d="m490.33 884.89c-.394 4.188-3.949 6.719-7.091 6.98l.022 4.408h-4.254v-4.058s-4.833-.251-7.582-1.952l1.605-4.974s1.919 1.036 4.144 1.494 6.083.336 6.555-1.757c.459-2.028-.861-2.825-3.609-3.61-2.749-.785-7.549-3.031-7.985-6.741-.475-4.034 1.352-7.156 6.806-8.312v-4.254h4.254v3.731s4.364.338 5.999 1.385l-1.026 4.571s-4.121-1.374-6.935-1.179c-2.816.196-3.004 3.054-1.005 4.33 2.357 1.506 5.848 2.608 6.96 3.196 1.111.589 3.534 2.553 3.142 6.742zm3.276-31.234h-.172-25.071-.173c-12.737 5.061-21.75 17.486-21.75 32.026 0 19.03 15.428 20.674 34.458 20.674 19.032 0 34.458-1.644 34.458-20.674 0-14.54-9.011-26.965-21.75-32.026z"/></g></svg>

<?xml version="1.0" encoding="UTF-8" standalone="no"?>
<!DOCTYPE svg PUBLIC "-//W3C//DTD SVG 1.1//EN" "http://www.w3.org/Graphics/SVG/1.1/DTD/svg11.dtd">
<svg width="100%" height="100%" viewBox="0 0 69 73" version="1.1" xmlns="http://www.w3.org/2000/svg" xmlns:xlink="http://www.w3.org/1999/xlink" xml:space="preserve" xmlns:serif="http://www.serif.com/" style="fill-rule:evenodd;clip-rule:evenodd;stroke-linejoin:round;stroke-miterlimit:2;">
    <g transform="matrix(1,0,0,1,-446.44,-833.59)">
        <path d="M504.574,847.161C500.452,849.515 497.512,850.949 495.171,850.575C497.692,849.492 502.105,847.171 504.422,841.74C504.597,841.327 503.344,840.747 502.932,840.572C502.52,840.396 502.044,840.588 501.869,840.999C500.079,845.197 497.651,847.393 495.61,848.548C497.99,844.187 499.412,838.119 499.412,833.59L481.277,833.59L462.386,833.59C462.386,839.428 464.743,847.838 468.48,851.832L493.318,851.832C493.323,851.826 493.328,851.819 493.334,851.813C494.333,852.11 495.577,852.345 497.048,852.345C499.436,852.345 502.402,851.731 505.802,849.791C506.191,849.569 505.902,847.853 505.679,847.464C505.457,847.075 504.962,846.939 504.574,847.161Z" style="fill:rgb(0,189,223);fill-rule:nonzero;"/>
        <path d="M490.33,884.89C489.936,889.078 486.381,891.609 483.239,891.87L483.261,896.278L479.007,896.278L479.007,892.22C479.007,892.22 474.174,891.969 471.425,890.268L473.03,885.294C473.03,885.294 474.949,886.33 477.174,886.788C479.399,887.246 483.257,887.124 483.729,885.031C484.188,883.003 482.868,882.206 480.12,881.421C477.371,880.636 472.571,878.39 472.135,874.68C471.66,870.646 473.487,867.524 478.941,866.368L478.941,862.114L483.195,862.114L483.195,865.845C483.195,865.845 487.559,866.183 489.194,867.23L488.168,871.801C488.168,871.801 484.047,870.427 481.233,870.622C478.417,870.818 478.229,873.676 480.228,874.952C482.585,876.458 486.076,877.56 487.188,878.148C488.299,878.737 490.722,880.701 490.33,884.89ZM493.606,853.656L493.434,853.656L468.363,853.656L468.19,853.656C455.453,858.717 446.44,871.142 446.44,885.682C446.44,904.712 461.868,906.356 480.898,906.356C499.93,906.356 515.356,904.712 515.356,885.682C515.356,871.142 506.345,858.717 493.606,853.656Z" style="fill:rgb(0,189,223);fill-rule:nonzero;"/>
    </g>
</svg>
